X: 1
T: Man In The Moon, The
M: 6/8
L: 1/8
R: jig
K: Edor
|:d/c/ | BGE EFA | ~B3 d2B | AFD DFA | DFA dfd |
BGE EFA | ~B3 def | edB AdF | FEE E2 :|
|: B | ~e3 edB | def fge | ~d3 dcB |def gbg |
~e3 edB | def gfe | dcB AdF | FEE E2 :|
